img/bank/img-8.svg

<svg width="36" height="34" viewBox="0 0 36 34" fill="none" xmlns="http://www.w3.org/2000/svg">
<rect width="36" height="34" rx="11" fill="#F72C00"/>
<path d="M9.86377 7L17.5001 28L28.0001 12.7273L24.6592 10.8182M9.86377 7L24.6592 10.8182M9.86377 7L18.4547 17.0227M24.6592 10.8182L18.4547 17.0227M18.4547 17.0227L27.5229 13.2045M18.4547 17.0227L17.5001 27.5227" stroke="white" stroke-width="1.5"/>
</svg>

<svg width="36" height="34" fill="none" xmlns="http://www.w3.org/2000/svg"><rect width="36" height="34" rx="11" fill="#F72C00"/><path d="M9.864 7L17.5 28 28 12.727l-3.34-1.909M9.863 7l14.795 3.818M9.864 7l8.59 10.023m6.205-6.205l-6.204 6.205m0 0l9.068-3.819m-9.068 3.819l-.955 10.5" stroke="#fff" stroke-width="1.5"/></svg>
